!!!OTL: ICH WEISS NICHT BIN ICH REICH ODER ARM
!!!ARE: Europa, Mitteleuropa, Deutschland, Hessen, Kreis Wetzlar
!!!SCT: E1374A
!!!YEM: Copyright 1995, estate of Helmut Schaffrath.
**kern
*ICvox
*Ivox
*M4/4
*k[f#]
*G:
{4d
=1
4g
4b
4b
8a
8g
=2
4a
8a
8b
4cc}
{8b
8a
=3
4b
4dd
4dd
8cc
8b
=4
4b
4a
4r}
{8a
8b
=5
4cc
4ee
4ee
8dd
8cc
=6
4b
4b
4dd}
{8cc
8b
=7
8a
8a
8a
8a
4dd
8f#
8f#
=8
4a
4g
4r}
{8a
8b
=9
4cc
4ee
4ee
8dd
8cc
=10
4b
4b
4dd}
{8cc
8b
=11
8a
8a
8a
8a
4dd
8f#
8f#
=12
4a
4g
4r}
==
!!!AGN: Staende -, Soldaten -, Kriegs - Lied
!!!ONB: ESAC (Essen Associative Code) Database: ERK3
!!!AMT: simple quadruple
!!!AIN: vox
!!!EED: Helmut Schaffrath
!!!EEV: 1.0
*-
